X:1
T:The Four Stroke Reel
C:Phil Cunningham
M:4/4
R:reel
L:1/8
K:D
dA (3AAA BAGF | GEFD EDCB, | A,2 (3A,A,A, CEAB | cABc eddc | dA (3AAA BAGF |
GEFD EDCB, |1 A,2 (3A,A,A, CEAB | cABc dAAA :|2 A,2 (3A,A,A, CEAB | cABc d2 z2 |:
A3 A (3Bcd ef | g2ed (3Bcd ef | geaf gefd | (3efe df edcB |1
BA (3AAA (3Bcd ef | g2 ed (3Bcd ef | geaf gefd | cABc d3 A :|2
BA (3AAA (3Bcd ef | g2 ed (3Bcd ed | dc (3ccc cB (3BBB | BA (3AAA ^GABc |:
d2 Ad FADF | EA, (3A,A,A,  EA,CB, | B,A, (3A,A,A,  CEAB | cABc dABc |
d2 Ad FADF | EA, (3A,A,A,  EA,CB, | B,A, (3A,A,A, CEAB |1 cABc d2 (3ABc :|2 cABc d4 |]
